X: 16117
T: Green Gowned Lass, The
R: reel
M: 4/4
K: Gmajor
c|d2BG AGBG|AGBd Beed|d2BG AGBG|dega bage|
d2BG AGBG|AGBd Beed|d2BG AGBG|dega bggf||
gabg ageg|~a3a agab|gaag agab|dega bggf|
gabg ageg|~a3a agab|gaag agab|degb bage||

